icons/evernote-fill.svg

<svg xmlns="http://www.w3.org/2000/svg" width="24" height="24" fill="none"><g clip-path="url(#a)"><g><path fill="#121212" d="M8.63 7.754C8.414 7.955 8.084 7.971 7.887 7.971H5.777C5.167 7.971 4.803 7.971 4.557 8.004C4.423 8.021 4.259 8.088 4.176 8.121C4.143 8.137 4.143 8.121 4.159 8.105L8.975 3.165C8.992 3.148 9.008 3.148 8.992 3.182C8.93876 3.30444 8.89983 3.43263 8.876 3.564C8.843 3.813 8.843 4.179 8.843 4.794V7.006C8.843 7.206 8.826 7.539 8.629 7.754H8.63ZM13.312 21.938C12.752 21.572 12.455 21.09 12.339 20.791C12.2205 20.5005 12.159 20.1898 12.158 19.876C12.1588 19.2111 12.4231 18.5736 12.893 18.1031C13.3629 17.6326 14.0001 17.3676 14.665 17.366C15.077 17.366 15.407 17.698 15.407 18.114C15.4078 18.2462 15.3729 18.3762 15.306 18.4902C15.2392 18.6043 15.1428 18.6981 15.027 18.762C14.9395 18.8099 14.845 18.8436 14.747 18.862C14.665 18.879 14.351 18.912 14.204 19.045C14.115 19.1145 14.0422 19.2026 13.9907 19.3031C13.9392 19.4036 13.9103 19.5142 13.906 19.627C13.905 19.8697 13.9998 20.103 14.17 20.276C14.467 20.575 14.863 20.741 15.292 20.741C15.5595 20.74 15.8241 20.6862 16.0708 20.5829C16.3175 20.4795 16.5414 20.3286 16.7297 20.1387C16.918 19.9488 17.0671 19.7236 17.1684 19.4761C17.2697 19.2285 17.3212 18.9635 17.32 18.696C17.32 17.682 16.644 16.783 15.753 16.385C15.621 16.318 15.407 16.268 15.209 16.218C15.0451 16.1842 14.88 16.1565 14.714 16.135C14.021 16.051 12.29 15.503 12.174 13.957C12.174 13.957 11.664 16.285 10.64 16.917C10.542 16.967 10.41 17.017 10.261 17.05C10.113 17.083 9.949 17.1 9.898 17.1C8.233 17.2 6.468 16.667 5.248 15.404C5.248 15.404 4.423 14.722 3.995 12.81C3.896 12.344 3.698 11.512 3.583 10.73C3.533 10.449 3.516 10.232 3.5 10.032C3.5 9.218 3.995 8.669 4.621 8.587H7.986C8.562 8.587 8.893 8.437 9.107 8.237C9.387 7.971 9.454 7.588 9.454 7.139V3.631C9.534 3.016 10.081 2.5 10.888 2.5H11.284C11.449 2.5 11.647 2.517 11.828 2.533C11.96 2.55 12.075 2.583 12.273 2.633C13.279 2.883 13.493 3.913 13.493 3.913L16.347 4.413C17.254 4.579 19.497 4.729 19.925 7.007C20.931 12.427 20.321 17.682 20.272 17.682C19.562 22.803 15.341 22.553 15.341 22.553C14.6167 22.5677 13.9063 22.3524 13.312 21.938ZM15.934 11.629C15.901 11.713 15.868 11.812 15.884 11.862C15.902 11.912 15.935 11.928 15.968 11.945C16.166 12.045 16.495 12.095 16.974 12.145C17.452 12.195 17.782 12.228 17.996 12.195C18.029 12.195 18.063 12.178 18.096 12.128C18.129 12.078 18.112 11.978 18.112 11.895C18.062 11.446 17.65 11.114 17.106 11.047C16.561 10.997 16.1 11.214 15.934 11.629Z"/></g></g><defs><clipPath id="a"><rect width="24" height="24" fill="white"/></clipPath></defs></svg>

<svg width="24" height="24" fill="none" xmlns="http://www.w3.org/2000/svg"><g clip-path="url(#a)"><path d="M8.63 7.754c-.216.201-.546.217-.743.217h-2.11c-.61 0-.974 0-1.22.033-.134.017-.298.084-.381.117-.033.016-.033 0-.017-.016l4.816-4.94c.017-.017.033-.017.017.017-.053.122-.092.25-.116.382-.033.249-.033.615-.033 1.23v2.212c0 .2-.017.533-.214.748h.001Zm4.682 14.184c-.56-.366-.857-.848-.973-1.147a2.443 2.443 0 0 1-.181-.915 2.513 2.513 0 0 1 2.507-2.51c.412 0 .742.332.742.748a.735.735 0 0 1-.38.648.947.947 0 0 1-.28.1c-.082.017-.396.05-.543.183a.777.777 0 0 0-.298.582.92.92 0 0 0 .264.649c.297.299.693.465 1.122.465a2.036 2.036 0 0 0 2.028-2.045c0-1.014-.676-1.913-1.567-2.311-.132-.067-.346-.117-.544-.167a6.732 6.732 0 0 0-.495-.083c-.693-.084-2.424-.632-2.54-2.178 0 0-.51 2.328-1.534 2.96-.098.05-.23.1-.379.133-.148.033-.312.05-.363.05-1.665.1-3.43-.433-4.65-1.696 0 0-.825-.682-1.253-2.594-.099-.466-.297-1.298-.412-2.08-.05-.281-.067-.498-.083-.698 0-.814.495-1.363 1.121-1.445h3.365c.576 0 .907-.15 1.121-.35.28-.266.347-.649.347-1.098V3.631c.08-.615.627-1.131 1.434-1.131h.396c.165 0 .363.017.544.033.132.017.247.05.445.1 1.006.25 1.22 1.28 1.22 1.28l2.854.5c.907.166 3.15.316 3.578 2.594 1.006 5.42.396 10.675.347 10.675-.71 5.121-4.931 4.871-4.931 4.871a3.426 3.426 0 0 1-2.029-.615Zm2.622-10.309c-.033.084-.066.183-.05.233.018.05.051.066.084.083.198.1.527.15 1.006.2.478.05.808.083 1.022.05.033 0 .067-.017.1-.067s.016-.15.016-.233c-.05-.449-.462-.781-1.006-.848-.545-.05-1.006.167-1.172.582Z" /></g><defs><clipPath id="a"><path fill="#fff" d="M0 0h24v24H0z"/></clipPath></defs></svg>
